!!!OTL: DROBEN AN BERGESHOEHN
!!!ARE: Europa, Mitteleuropa, Deutschland, Hessen, Wetterau, Muschenheim
!!!SCT: E0705A
!!!YEM: Copyright 1995, estate of Helmut Schaffrath.
**kern
*ICvox
*Ivox
*M3/4
*k[b-]
*F:
{8cc
8a
8b-
=1
8.cc
16dd
8cc
8cc
8b-
8a
=2
8.g
16a
8g}
{8a
8b-
8g
=3
8.ee
16ee
8ee
8dd
8cc
8b-
=4
4a
8r}
{8cc
8a
8b-
=5
8.cc
16dd
8cc
8cc
8b-
8a
=6
8.g
16a
8g}
{8a
8b-
8g
=7
8.ee
16ee
8ee
8dd
8cc
8b-
=8
4a
8r}
{8cc
8a
8b-
=9
8.cc
16dd
8cc
8cc
8b-
8a
=10
8.g
16a
8g}
{8a
8b-
8g
=11
8.ee
16ee
8ee
8dd
8cc
8b-
=12
4a
8r}
==
!!!AGN: Liebes - Lied, Leid, Klage
!!!ONB: ESAC (Essen Associative Code) Database: ERK2
!!!AMT: simple triple
!!!AIN: vox
!!!EED: Helmut Schaffrath
!!!EEV: 1.0
*-
